X: 5149
T: Brigg Fair
R: jig
M: 6/8
K: Eminor
B2c|d2B BAG|A3 B2c|B2E E2F|G3 E2D|
E2E G2A|BAB d2F|GFG AGF|E3 B2^c|
dBB BAG|A3 ABc|B2E E2F|G3 E2D|
E2E G2A|BAB d2F|G2G A2G|E6||

